!!!COM: Robert Franz
!!!CNT: Deutscher
!!!TXO: Deutsche 
!!!OTL: "Ich wand're durch die stille Nacht"
!!!OPS: Op. 35
!!!ONM: No. 2
!!!ONB: Original key: d minor
!!!LYR: Joseph von Eichendorff
!!!ENC: Brian Bice
!!!YOR: Vocal Album, G. Schirmer, Inc., 1907
!!!ODT: 1862/
!!NB: Vocal melody and text only encoded.
**kern	**silbe
*clefG2	*
*k[b-e-a-]	*
*M6/8	*
=1	=1
4r	.
8r	.
4r	.
{8g	{Ich
=2	=2
4e-	wan-
8f	-d're
(8g	durch
8f)	|
8e-	die
=3	=3
4a-	stil-
8f	-le
4d	Nacht,
8b-	da
=4	=4
4g	schleicht
8an	der
(8b-	Mond
8an)	|
8g	so
=5	=5
4cc	heim-
8an	-lich
4f#}	sacht}
{8dd	{oft
=6	=6
4b-	aus
8cc	der
(8dd	dunk-
8cc)	|
8b-	-len
=7	=7
4.ee-	Wol-
4.cc	-ken-
=8	=8
2.dd	-hu2l-
=9	=9
[4.dd	-le;
8dd]}	|}
8r	.
{8g	{und
=10	=10
4f	hin
8f	und
4g	her
8g	im
=11	=11
[4.cc	Thal
8cc]}	|}
8r	.
{8g	{er-
=12	=12
4f	-wacht
8f	die
4g	Nach-
8g	-ti
=13	=13
[4.cc	-gall;
8cc]}	|}
8r	.
{8dd	{dann
=14	=14
4ee-	wie-
8cc	-der
4g	Al-
8dd	-les
=15	=15
(4cc	grau
8g)	|
(4e-	und
8f)	|
=16	=16
2.g	stil-
=17	=17
[4.c	-le.
8c]}	|}
8r	.
8r	.
=18	=18
4r	.
8r	.
4r	.
{8g	{O
=19	=19
4e-	wun-
8f	-der-
(8g	-ba-
8f)	|
8e-	-rer
=20	=20
4a-	Nacht-
8f	-ge-
4d	-sang:
8b-	von
=21	=21
4g	fern
8an	im
(8b-	Land
8an)	|
8g	der
=22	=22
4cc	Stro2-
8an	-me
4f#}	Gang,}
{8dd	{leis'
=23	=23
4b-	Schau-
8cc	-ern
(8dd	in
8cc)	|
8b-	den
=24	=24
4.ee-	dunk-
4.cc	-len
=25	=25
2.dd	Ba2u-
=26	=26
[4.dd	-men,
8dd]}	|}
8r	.
8r	.
=27	=27
{8f	{wirr'st
8f	die
8f	Ge-
4g	-dan-
8g	-ken
=28	=28
[4.cc	mir,
8cc]}	|}
8r	.
{8g	{mein
=29	=29
4f	ir-
8f	-res
4g	Sin-
8g	-gen
=30	=30
[4.cc	hier
8cc]}	|}
8r	.
{8dd	{ist
=31	=31
4ee-	wie
8cc	ein
4bn	Ru-
8dd	-fen
=32	=32
(4cc	nur
8g)	|
(4e-	aus
8f)	|
=33	=33
2.g	Tra2u-
=34	=34
[4.c	-men
8c]}	|}
8r	.
8r	.
*-	*-
